X:1
T:Antalya, 76.86.86.86
T:Antalya, 76.86.86.86
T:Attributed to J A. Anthes (1789-1842)
T:Public Domain Courtesy of the Cyber Hymnal™
C:Attributed to J A. Anthes (1789-1842)
Z:Public Domain
Z:Courtesy of the Cyber Hymnal™
%%score ( 1 2 ) ( 3 4 )
L:1/8
Q:1/4=113
M:4/4
K:Bb
V:1 treble 
V:2 treble 
V:3 bass 
V:4 bass 
V:1
 F2 | [FB]2 [FA]2 [FB]2 [Ec]2 | [Dd]4 [FB]2 (BA) | [EG]2 [Ge]2 [Fd]2 [Ec]2 | [DB]6 F2 | %5
 [FB]2 [EA]2 [DB]2 [Fc]2 | [Fd]3 [Fc] [FB]2 (BA) | [EG]2 [Ge]2 [Fd]2 [Ec]2 | [DB]6 [Fd]2 | %9
 [Fc]2 [FA]2 [FB]2 [=EG]2 | [FA]3 [=EG] F2 F2 | [EG]2 [EA]2 [DB]2 [Gc]2 | [^Fd]6 =F2 | %13
 [FB]2 [FA]2 [=EG]2 F2 | c3 z c [Fc]2 [Fd]2 | [Ee]2 [Ec]2 [DB]2 [CA]2 | [DB]6 |] %17
V:2
 F2 | x8 | x6 F2 | x8 | x6 F2 | x8 | x6 F2 | x8 | x8 | x8 | x4 F2 F2 | x8 | x6 F2 | x6 F2 | %14
 F2 =E2 x5 | x8 | x6 |] %17
V:3
 F,2 | [D,B,]2 [F,C]2 [D,B,]2 [C,A,]2 | [B,,B,]4 [D,B,]2 [D,B,]2 | %3
 [E,B,]2 [C,B,]2 [F,B,]2 [F,A,]2 | [B,,B,]6 F,2 | [D,B,]2 [F,C]2 [G,B,]2 [F,A,]2 | %6
 [B,,B,]3 [E,A,] [D,B,]2 [D,B,]2 | [E,B,]2 [C,B,]2 [F,B,]2 [F,A,]2 | [B,,B,]6 [B,,B,]2 | %9
 [A,,C]2 [D,F,]2 [G,,D]2 [C,C]2 | [F,C]3 [F,B,] [F,A,]2 [D,B,]2 | [E,B,]2 [C,C]2 [G,B,]2 [E,G,]2 | %12
 [D,A,]6 [F,A,]2 | [D,B,]2 [F,C]2 [C,B,]2 [D,A,]2 | [A,,C]2 [C,G,]2 [F,A,]2 [D,=B,]2 x | %15
 [C,C]2 [E,G,]2 F,2 F,2 | [B,,F,]6 |] %17
V:4
 F,2 | x8 | x8 | x8 | x6 F,2 | x8 | x8 | x8 | x8 | x8 | x8 | x8 | x8 | x8 | x9 | x4 F,2 F,2 | x6 |] %17

